X:1
T:Bullocky Oh
M:3/4
L:1/8
K:G
 D3| G2 G G2 A| B3 AA G| A3 DD D| D3 D2 D| GGG| G2 A| B3 AA G| A3- A3-|\
 A2 z A2 B| c2 c c2 c| c3 d2| c| BBB B2 A| G2 z G2 A| B2 B B2 B| A2 A A2 A|\
 G2 z GG A| B2 z G2 A| B2 B B2 B| A2 A A2 A| G3 GG G| G3||
